X: 11
T: Cobbler's, The
Z: Erik-Fiddler
S: https://thesession.org/tunes/265#setting53218
R: polka
M: 2/4
L: 1/8
K: Bmin
|:B/c/|dB bB|de [Bf]>e|dB bB|cA [Ae]>c|
dB bB|de f>e|de f/e/d|1 B3:|2 B2 B2||
|:fe/f/ ba|fe [Bf]>e|dB bB|c/B/A/c/ [e2A2]|
fe/f/ ba|fe f>e|de f/e/d|1 B2 B2:|2 B2 ||
|:B>c|dB bB|de [Bf]>e|dB bB|c/B/A/c/ e/g/f/e/|
dB bB|de f>e|de f/e/d|1 B3:|2 B2 B2||
|:fe/f/ ba|fe [Bf]>e|d/c/B/F/ e/d/c/A/|f/e/d/f/ e/g/f/e/|
fe/f/ ba|fe f>e|de f/e/d|B2 B2:|

%-------------------- TUNE SEPARATOR --------------------%

